X:684
T:Hame, Hame, Hame
B:Songs of Scotland Without Words
Z:Nigel Gatherer
M:4/4
L:1/8
K:Am
z2 | A2 A>G E2 D>E | G2 A>G GE (3DEG | A2 AG E2 cd | e2 E>G A2 :|
cd | e2 dc  d2 ed  | cAGE   D2   EG  | A>BAG E2 cd | e2 E>G A2 :| 
<end>
<start>
